_includes/svgs/pytorch-language.svg

<svg height="27" viewBox="0 0 195 27" width="195" xmlns="http://www.w3.org/2000/svg"><g fill="none" fill-rule="evenodd"><path d="m4.25242207 3.69783784h-2.49631424v8.26662166l2.44071188-.0571622c3.23767903-.0583784 4.99378686-1.4108108 4.99378686-4.20567568 0-2.56256757-1.72830665-4.00378378-4.9381845-4.00378378m-.16564869 9.93770266-2.33066555.027973v6.3364865h-1.75610783v-18h4.30686605c4.52695872 0 6.69313395 2.30351351 6.69313395 5.61527027 0 3.94662163-2.66080455 5.96189193-6.91322662 6.02027023" fill="#fff"/><path d="m19.8796712 20.0170479-1.0639014 2.8453558c-1.2072123 3.2178608-2.4727205 4.1375963-4.2568199 4.1375963-1.0056054 0-1.7537369-.2596615-2.5589499-.6042589l.5465247-1.6380514c.6315396.3445975 1.2934417.5751381 2.0124252.5751381 1.0068199 0 1.7549514-.5460171 2.7046899-3.0467755l.8914424-2.3272463-5.1482623-12.958806h1.9274103l4.1414424 10.8621003 4.0552131-10.8621003h1.8691143z" fill="#fff"/><path d="m30.8890751 3.72812648v16.27187352h-1.7781502v-16.27187352h-6.1109249v-1.72812648h14v1.72812648z" fill="#fff"/><path d="m44.4993845 7.61961263c-2.8274784 0-4.6935896 2.22788344-4.6935896 5.35107307 0 3.2392253 1.8956538 5.4097017 4.7231323 5.4097017 2.8274784 0 4.6935896-2.2278835 4.6935896-5.3510731 0-3.24044674-1.8944229-5.40970167-4.7231323-5.40970167m-.0578543 12.38038737c-3.7026797 0-6.4415302-2.7188972-6.4415302-6.9706857 0-4.22369573 2.8557902-7.0293143 6.5867816-7.0293143 3.7322223 0 6.4132184 2.71889723 6.4132184 6.9706857 0 4.2236957-2.8570211 7.0293143-6.5584698 7.0293143" fill="#fff"/><path d="m54.7914634 20h-1.7914634v-13.61341223l1.7914634-.38658777v2.91321499c.8658537-1.75345168 2.1646342-2.91321499 3.897561-2.91321499.8670732 0 1.704878.26734804 2.3109756.62506724l-.4621951 1.72332795c-.5780488-.35646404-1.2707317-.59494351-2.0207317-.59494351-1.3865854 0-2.6865854 1.0706473-3.7256098 3.50690332z" fill="#fff"/><path d="m68.6959266 20c-4.1248423 0-6.6959266-2.8642471-6.6959266-6.9706857 0-4.13697439 2.8399312-7.0293143 6.7262192-7.0293143 1.6749282 0 3.1087779.40551387 4.2737808 1.12859885l-.4783706 1.61961263c-1.0450947-.66567789-2.3602984-1.06997034-3.7954102-1.06997034-2.9585772 0-4.8127367 2.13994068-4.8127367 5.29244456 0 3.2392253 1.9437751 5.3522946 4.8430293 5.3522946 1.3745266 0 2.7503155-.4348281 3.7966724-1.0992846l.3874928 1.6489269c-1.1662651.6949921-2.6594378 1.1273774-4.2447504 1.1273774" fill="#fff"/><path d="m85.125406 20v-8.6170867c0-2.32821139-.9672854-3.37676702-2.9605568-3.37676702-1.6015081 0-3.1430395.78672403-4.2928074 1.89182545v10.10202827h-1.8720418v-19.6201598l1.8720418-.3798402v8.41303012c1.450928-1.39766442 3.2655452-2.12415489 4.8058004-2.12415489 2.6887471 0 4.3221578 1.65826675 4.3221578 4.57037497v9.1407498z" fill="#fff"/><g fill="#cc2faa"><path d="m90 20v-18h1.7162912v16.2718735h8.2837088v1.7281265z"/><path d="m110.922118 12.8265573c-4.474842.5215495-6.070335 1.5328913-6.070335 3.2978538 0 1.4168557 1.139466 2.3146048 2.679611 2.3146048 1.395755 0 2.592977-.8098063 3.390724-1.7356483zm.027674 5.2069447c-.883176 1.0992846-2.278932 1.966498-3.817873 1.966498-2.39324 0-4.131919-1.5609841-4.131919-3.672832 0-2.4013261 1.851783-4.3678241 7.922118-4.7147094v-.7817135c0-2.08253362-.912055-3.15250396-3.077883-3.15250396-1.424633 0-3.163312.75117781-4.2739 1.59029838l-.398272-1.67701972c1.167141-.83912057 3.133231-1.5915198 4.843032-1.5915198 3.02133 0 4.702254 1.38876287 4.673376 4.7440237v6.3636364c0 .9539347.17086 1.3594486 1.311529 1.3313558l-.114308 1.4742628c-1.709801.1160356-2.650732-.5777352-2.849267-1.8797767z"/><path d="m124.295824 20v-8.7986373c0-2.37726372-.879351-3.44791102-2.774942-3.44791102-1.37239 0-2.773782.80329926-3.819026 1.9316837v10.31486462h-1.701856v-13.61341223l1.701856-.38658777v2.22915546c1.319026-1.42711135 2.968678-2.22915546 4.287703-2.22915546 2.525522 0 4.010441 1.69320423 4.010441 4.6666667v9.3333333z"/><path d="m135.186406 14.4705468c1.995926 0 3.250301-1.4615023 3.250301-3.5051389 0-1.98566984-1.140013-3.47553887-3.335772-3.47553887-2.023613 0-3.277988 1.48986903-3.277988 3.56310567 0 1.927703 1.254375 3.4175721 3.363459 3.4175721m-4.475785 8.2954131c0 1.5762025 1.682934 2.7441711 4.448097 2.7441711 2.708585 0 4.90314-1.3431022 4.90314-3.1536384 0-1.5774358-1.368738-2.1324367-3.96296-2.1324367-.8836 0-1.994722-.0283667-2.737476-.0875668-1.566163.437834-2.650801 1.489869-2.650801 2.6294708m-.656079-5.1121747c0-1.1100018.941384-2.07447 2.13918-2.5406707-1.254376-.7881013-2.110288-2.2496036-2.110288-4.0897399 0-2.83297112 2.052505-5.0233746 5.131864-5.0233746 1.368738 0 2.365497.37986727 3.078155.78810125l3.621076-.29230046.085471 1.81176954-2.878322-.29106713c.625984.64133435 1.054542 1.92646973 1.054542 3.0068714 0 2.8342045-2.166867 4.9074412-5.075285 4.9074412-.712658 0-1.283267-.1467669-1.938142-.3798673-.683767.2910671-1.454209.846068-1.454209 1.6070359 0 .846068.627188 1.3727022 2.964997 1.3727022h1.682933c3.790814 0 5.415965 1.313502 5.415965 3.5051389 0 2.9489046-3.221409 4.9641745-6.870173 4.9641745-3.506714 0-5.902306-1.5774358-5.902306-3.9146062 0-1.5170024 1.141217-2.8613379 2.822947-3.2991719-1.112326-.408234-1.768405-1.1692019-1.768405-2.1324367"/><path d="m145.874594 7v8.7994262c0 2.3774769.967285 3.4469649 2.991183 3.4469649 1.602784 0 3.14304-.802116 4.262181-1.9318569v-10.3145342h1.872042v13.6146328l-1.872042.3853672v-2.1992289c-1.421577 1.4272393-3.234919 2.1992289-4.77645 2.1992289-2.688747 0-4.351508-1.693356-4.351508-4.6658298v-9.3341702z"/><path d="m165.922118 12.8265573c-4.473638.5215495-6.069132 1.5328913-6.069132 3.2978538 0 1.4168557 1.139466 2.3146048 2.678408 2.3146048 1.395755 0 2.592977-.8098063 3.390724-1.7356483zm.027674 5.2069447c-.883176 1.0992846-2.278932 1.966498-3.81667 1.966498-2.395647 0-4.133122-1.5609841-4.133122-3.672832 0-2.4013261 1.852986-4.3678241 7.922118-4.7147094v-.7817135c0-2.08253362-.912055-3.15250396-3.077883-3.15250396-1.424633 0-3.163312.75117781-4.2739 1.59029838l-.398272-1.67701972c1.167141-.83912057 3.133231-1.5915198 4.843032-1.5915198 3.02133 0 4.70105 1.38876287 4.673376 4.7440237v6.3636364c0 .9539347.17086 1.3594486 1.311529 1.3313558l-.114308 1.4742628c-1.709801.1160356-2.649529-.5777352-2.849267-1.8797767z"/><path d="m176.186406 14.4705468c1.995926 0 3.250301-1.4615023 3.250301-3.5051389 0-1.98566984-1.140013-3.47553887-3.335772-3.47553887-2.023613 0-3.277988 1.48986903-3.277988 3.56310567 0 1.927703 1.254375 3.4175721 3.363459 3.4175721m-4.475785 8.2954131c0 1.5762025 1.682934 2.7441711 4.448097 2.7441711 2.708585 0 4.90314-1.3431022 4.90314-3.1536384 0-1.5774358-1.368738-2.1324367-3.96296-2.1324367-.8836 0-1.994722-.0283667-2.737476-.0875668-1.566163.437834-2.650801 1.489869-2.650801 2.6294708m-.656079-5.1121747c0-1.1100018.941384-2.07447 2.13918-2.5406707-1.254376-.7881013-2.110288-2.2496036-2.110288-4.0897399 0-2.83297112 2.052505-5.0233746 5.131864-5.0233746 1.368738 0 2.365497.37986727 3.078155.78810125l3.621076-.29230046.085471 1.81176954-2.878322-.29106713c.625984.64133435 1.054542 1.92646973 1.054542 3.0068714 0 2.8342045-2.166867 4.9074412-5.075285 4.9074412-.712658 0-1.283267-.1467669-1.938142-.3798673-.683767.2910671-1.454209.846068-1.454209 1.6070359 0 .846068.627188 1.3727022 2.964997 1.3727022h1.682933c3.790814 0 5.415965 1.313502 5.415965 3.5051389 0 2.9489046-3.221409 4.9641745-6.870173 4.9641745-3.506714 0-5.902306-1.5774358-5.902306-3.9146062 0-1.5170024 1.141217-2.8613379 2.822947-3.2991719-1.112326-.408234-1.768405-1.1692019-1.768405-2.1324367"/><path d="m193.219821 11.6124586c.027891-.1441285.027891-.4336067.027891-.5789566 0-2.0251265-1.090177-3.41388937-3.157755-3.41388937-2.354977 0-3.87686 1.823591-4.165472 4.02093877zm-7.409326 1.5902983c.058207 2.9790613 1.837173 5.1202234 4.594752 5.1202234 1.435785 0 2.814574-.4336067 3.819866-1.0992846l.343182 1.6489269c-1.119282.6949921-2.58417 1.1273774-4.220042 1.1273774-3.790762 0-6.348253-2.8642471-6.348253-6.8839644 0-4.16506718 2.643589-7.1160356 6.203947-7.1160356 2.900672 0 4.796053 1.91031234 4.796053 4.8881522 0 .6949921-.115202 1.5341127-.287399 2.1130692l-8.902106.0574071z"/></g></g></svg>

<?xml version="1.0" encoding="UTF-8"?>
<svg width="195px" height="27px" viewBox="0 0 195 27" version="1.1" xmlns="http://www.w3.org/2000/svg" xmlns:xlink="http://www.w3.org/1999/xlink">
    <!-- Generator: Sketch 51.2 (57519) - http://www.bohemiancoding.com/sketch -->
    <title>Group 5</title>
    <desc>Created with Sketch.</desc>
    <defs></defs>
    <g id="desktop" stroke="none" stroke-width="1" fill="none" fill-rule="evenodd">
        <g id="04_Ecosystem" transform="translate(-207.000000, -278.000000)">
            <g id="Group-3" transform="translate(205.000000, 188.000000)">
                <g id="Group-5" transform="translate(2.000000, 90.000000)">
                    <path d="M4.25242207,3.69783784 L1.75610783,3.69783784 L1.75610783,11.9644595 L4.19681971,11.9072973 C7.43449874,11.8489189 9.19060657,10.4964865 9.19060657,7.70162162 C9.19060657,5.13905405 7.46229992,3.69783784 4.25242207,3.69783784 M4.08677338,13.6355405 L1.75610783,13.6635135 L1.75610783,20 L0,20 L0,2 L4.30686605,2 C8.83382477,2 11,4.30351351 11,7.61527027 C11,11.5618919 8.33919545,13.5771622 4.08677338,13.6355405" id="Fill-13" fill="#FFFFFF"></path>
                    <path d="M19.8796712,20.0170479 L18.8157698,22.8624037 C17.6085575,26.0802645 16.3430493,27 14.5589499,27 C13.5533445,27 12.805213,26.7403385 12,26.3957411 L12.5465247,24.7576897 C13.1780643,25.1022872 13.8399664,25.3328278 14.5589499,25.3328278 C15.5657698,25.3328278 16.3139013,24.7868107 17.2636398,22.2860523 L18.1550822,19.958806 L13.0068199,7 L14.9342302,7 L19.0756726,17.8621003 L23.1308857,7 L25,7 L19.8796712,20.0170479 Z" id="Fill-14" fill="#FFFFFF"></path>
                    <polygon id="Fill-15" fill="#FFFFFF" points="30.8890751 3.72812648 30.8890751 20 29.1109249 20 29.1109249 3.72812648 23 3.72812648 23 2 37 2 37 3.72812648"></polygon>
                    <path d="M44.4993845,7.61961263 C41.6719061,7.61961263 39.8057949,9.84749607 39.8057949,12.9706857 C39.8057949,16.209911 41.7014487,18.3803874 44.5289272,18.3803874 C47.3564056,18.3803874 49.2225168,16.1525039 49.2225168,13.0293143 C49.2225168,9.78886756 47.3280939,7.61961263 44.4993845,7.61961263 M44.4415302,20 C40.7388505,20 38,17.2811028 38,13.0293143 C38,8.80561857 40.8557902,6 44.5867816,6 C48.3190039,6 51,8.71889723 51,12.9706857 C51,17.1943814 48.1429789,20 44.4415302,20" id="Fill-16" fill="#FFFFFF"></path>
                    <path d="M54.7914634,20 L53,20 L53,6.38658777 L54.7914634,6 L54.7914634,8.91321499 C55.6573171,7.15976331 56.9560976,6 58.6890244,6 C59.5560976,6 60.3939024,6.26734804 61,6.62506724 L60.5378049,8.34839519 C59.9597561,7.99193115 59.2670732,7.75345168 58.5170732,7.75345168 C57.1304878,7.75345168 55.8304878,8.82409898 54.7914634,11.260355 L54.7914634,20 Z" id="Fill-17" fill="#FFFFFF"></path>
                    <path d="M68.6959266,20 C64.5710843,20 62,17.1357529 62,13.0293143 C62,8.89233991 64.8399312,6 68.7262192,6 C70.4011474,6 71.8349971,6.40551387 73,7.12859885 L72.5216294,8.74821148 C71.4765347,8.08253359 70.161331,7.67824114 68.7262192,7.67824114 C65.767642,7.67824114 63.9134825,9.81818182 63.9134825,12.9706857 C63.9134825,16.209911 65.8572576,18.3229803 68.7565118,18.3229803 C70.1310384,18.3229803 71.5068273,17.8881522 72.5531842,17.2236957 L72.940677,18.8726226 C71.7744119,19.5676147 70.2812392,20 68.6959266,20" id="Fill-18" fill="#FFFFFF"></path>
                    <path d="M85.125406,20 L85.125406,11.3829133 C85.125406,9.05470191 84.1581206,8.00614628 82.1648492,8.00614628 C80.5633411,8.00614628 79.0218097,8.79287031 77.8720418,9.89797173 L77.8720418,20 L76,20 L76,0.379840197 L77.8720418,0 L77.8720418,8.41303012 C79.3229698,7.0153657 81.137587,6.28887523 82.6778422,6.28887523 C85.3665893,6.28887523 87,7.94714198 87,10.8592502 L87,20 L85.125406,20 Z" id="Fill-19" fill="#FFFFFF"></path>
                    <polygon id="Fill-20" fill="#CC2FAA" points="90 20 90 2 91.7162912 2 91.7162912 18.2718735 100 18.2718735 100 20"></polygon>
                    <path d="M110.922118,12.8265573 C106.447276,13.3481068 104.851783,14.3594486 104.851783,16.1244111 C104.851783,17.5412668 105.991249,18.4390159 107.531394,18.4390159 C108.927149,18.4390159 110.124371,17.6292096 110.922118,16.7033676 L110.922118,12.8265573 Z M110.949792,18.033502 C110.066616,19.1327866 108.67086,20 107.131919,20 C104.738679,20 103,18.4390159 103,16.327168 C103,13.9258419 104.851783,11.9593439 110.922118,11.6124586 L110.922118,10.8307451 C110.922118,8.74821148 110.010063,7.67824114 107.844235,7.67824114 C106.419602,7.67824114 104.680923,8.42941895 103.570335,9.26853952 L103.172063,7.5915198 C104.339204,6.75239923 106.305294,6 108.015095,6 C111.036425,6 112.717349,7.38876287 112.688471,10.7440237 L112.688471,17.1076601 C112.688471,18.0615948 112.859331,18.4671087 114,18.4390159 L113.885692,19.9132787 C112.175891,20.0293143 111.23496,19.3355435 111.036425,18.033502 L110.949792,18.033502 Z" id="Fill-21" fill="#CC2FAA"></path>
                    <path d="M124.295824,20 L124.295824,11.2013627 C124.295824,8.82409898 123.416473,7.75345168 121.520882,7.75345168 C120.148492,7.75345168 118.7471,8.55675094 117.701856,9.68513538 L117.701856,20 L116,20 L116,6.38658777 L117.701856,6 L117.701856,8.22915546 C119.020882,6.80204411 120.670534,6 121.989559,6 C124.515081,6 126,7.69320423 126,10.6666667 L126,20 L124.295824,20 Z" id="Fill-22" fill="#CC2FAA"></path>
                    <path d="M135.186406,14.4705468 C137.182332,14.4705468 138.436707,13.0090445 138.436707,10.9654079 C138.436707,8.97973806 137.296694,7.48986903 135.100935,7.48986903 C133.077322,7.48986903 131.822947,8.97973806 131.822947,11.0529747 C131.822947,12.9806777 133.077322,14.4705468 135.186406,14.4705468 M130.710621,22.7659599 C130.710621,24.3421624 132.393555,25.510131 135.158718,25.510131 C137.867303,25.510131 140.061858,24.1670288 140.061858,22.3564926 C140.061858,20.7790568 138.69312,20.2240559 136.098898,20.2240559 C135.215298,20.2240559 134.104176,20.1956892 133.361422,20.1364891 C131.795259,20.5743231 130.710621,21.6263581 130.710621,22.7659599 M130.054542,17.6537852 C130.054542,16.5437834 130.995926,15.5793152 132.193722,15.1131145 C130.939346,14.3250132 130.083434,12.8635109 130.083434,11.0233746 C130.083434,8.19040348 132.135939,6 135.215298,6 C136.584036,6 137.580795,6.37986727 138.293453,6.78810125 L141.914529,6.49580079 L142,8.30757033 L139.121678,8.0165032 C139.747662,8.65783755 140.17622,9.94297293 140.17622,11.0233746 C140.17622,13.8575791 138.009353,15.9308158 135.100935,15.9308158 C134.388277,15.9308158 133.817668,15.7840489 133.162793,15.5509485 C132.479026,15.8420156 131.708584,16.3970165 131.708584,17.1579844 C131.708584,18.0040524 132.335772,18.5306866 134.673581,18.5306866 L136.356514,18.5306866 C140.147328,18.5306866 141.772479,19.8441886 141.772479,22.0358255 C141.772479,24.9847301 138.55107,27 134.902306,27 C131.395592,27 129,25.4225642 129,23.0853938 C129,21.5683914 130.141217,20.2240559 131.822947,19.7862219 C130.710621,19.3779879 130.054542,18.61702 130.054542,17.6537852" id="Fill-23" fill="#CC2FAA"></path>
                    <path d="M145.874594,7 L145.874594,15.7994262 C145.874594,18.1769031 146.841879,19.2463911 148.865777,19.2463911 C150.468561,19.2463911 152.008817,18.4442751 153.127958,17.3145342 L153.127958,7 L155,7 L155,20.6146328 L153.127958,21 L153.127958,18.8007711 C151.706381,20.2280104 149.893039,21 148.351508,21 C145.662761,21 144,19.306644 144,16.3341702 L144,7 L145.874594,7 Z" id="Fill-24" fill="#CC2FAA"></path>
                    <path d="M165.922118,12.8265573 C161.44848,13.3481068 159.852986,14.3594486 159.852986,16.1244111 C159.852986,17.5412668 160.992452,18.4390159 162.531394,18.4390159 C163.927149,18.4390159 165.124371,17.6292096 165.922118,16.7033676 L165.922118,12.8265573 Z M165.949792,18.033502 C165.066616,19.1327866 163.67086,20 162.133122,20 C159.737475,20 158,18.4390159 158,16.327168 C158,13.9258419 159.852986,11.9593439 165.922118,11.6124586 L165.922118,10.8307451 C165.922118,8.74821148 165.010063,7.67824114 162.844235,7.67824114 C161.419602,7.67824114 159.680923,8.42941895 158.570335,9.26853952 L158.172063,7.5915198 C159.339204,6.75239923 161.305294,6 163.015095,6 C166.036425,6 167.716145,7.38876287 167.688471,10.7440237 L167.688471,17.1076601 C167.688471,18.0615948 167.859331,18.4671087 169,18.4390159 L168.885692,19.9132787 C167.175891,20.0293143 166.236163,19.3355435 166.036425,18.033502 L165.949792,18.033502 Z" id="Fill-25" fill="#CC2FAA"></path>
                    <path d="M176.186406,14.4705468 C178.182332,14.4705468 179.436707,13.0090445 179.436707,10.9654079 C179.436707,8.97973806 178.296694,7.48986903 176.100935,7.48986903 C174.077322,7.48986903 172.822947,8.97973806 172.822947,11.0529747 C172.822947,12.9806777 174.077322,14.4705468 176.186406,14.4705468 M171.710621,22.7659599 C171.710621,24.3421624 173.393555,25.510131 176.158718,25.510131 C178.867303,25.510131 181.061858,24.1670288 181.061858,22.3564926 C181.061858,20.7790568 179.69312,20.2240559 177.098898,20.2240559 C176.215298,20.2240559 175.104176,20.1956892 174.361422,20.1364891 C172.795259,20.5743231 171.710621,21.6263581 171.710621,22.7659599 M171.054542,17.6537852 C171.054542,16.5437834 171.995926,15.5793152 173.193722,15.1131145 C171.939346,14.3250132 171.083434,12.8635109 171.083434,11.0233746 C171.083434,8.19040348 173.135939,6 176.215298,6 C177.584036,6 178.580795,6.37986727 179.293453,6.78810125 L182.914529,6.49580079 L183,8.30757033 L180.121678,8.0165032 C180.747662,8.65783755 181.17622,9.94297293 181.17622,11.0233746 C181.17622,13.8575791 179.009353,15.9308158 176.100935,15.9308158 C175.388277,15.9308158 174.817668,15.7840489 174.162793,15.5509485 C173.479026,15.8420156 172.708584,16.3970165 172.708584,17.1579844 C172.708584,18.0040524 173.335772,18.5306866 175.673581,18.5306866 L177.356514,18.5306866 C181.147328,18.5306866 182.772479,19.8441886 182.772479,22.0358255 C182.772479,24.9847301 179.55107,27 175.902306,27 C172.395592,27 170,25.4225642 170,23.0853938 C170,21.5683914 171.141217,20.2240559 172.822947,19.7862219 C171.710621,19.3779879 171.054542,18.61702 171.054542,17.6537852" id="Fill-26" fill="#CC2FAA"></path>
                    <path d="M193.219821,11.6124586 C193.247712,11.4683301 193.247712,11.1788519 193.247712,11.033502 C193.247712,9.0083755 192.157535,7.61961263 190.089957,7.61961263 C187.73498,7.61961263 186.213097,9.44320363 185.924485,11.6405514 L193.219821,11.6124586 Z M185.810495,13.2027569 C185.868702,16.1818182 187.647668,18.3229803 190.405247,18.3229803 C191.841032,18.3229803 193.219821,17.8893736 194.225113,17.2236957 L194.568295,18.8726226 C193.449013,19.5676147 191.984125,20 190.348253,20 C186.557491,20 184,17.1357529 184,13.1160356 C184,8.95096842 186.643589,6 190.203947,6 C193.104619,6 195,7.91031234 195,10.8881522 C195,11.5831443 194.884798,12.4222649 194.712601,13.0012214 L185.810495,13.0586285 L185.810495,13.2027569 Z" id="Fill-27" fill="#CC2FAA"></path>
                </g>
            </g>
        </g>
    </g>
</svg>
